build/category/TesterATSolid.svg

<svg xmlns="http://www.w3.org/2000/svg" fill="none" viewBox="0 0 24 24" focusable="false"><path d="M0 0H24V24H0z"/><path fill="#74767B" fill-rule="evenodd" d="M20 13.1497C20 13.39 19.7283 13.5369 19.5139 13.4283C18.9002 13.1177 18.2062 12.9426 17.4713 12.9426C16.8018 12.9426 16.1663 13.0879 15.5945 13.3487L12.594 7.30303C12.4787 7.0707 12.243 6.93762 11.9999 6.94189C11.7566 6.93754 11.5209 7.07056 11.4056 7.30296L7.03008 16.1191C6.87049 16.4407 7.00179 16.8307 7.32335 16.9903C7.64491 17.1499 8.03496 17.0186 8.19455 16.697L9.24954 14.5713L13.9928 14.5713C13.3371 15.3569 12.9426 16.3681 12.9426 17.4713C12.9426 18.2062 13.1177 18.9002 13.4283 19.5139C13.5369 19.7283 13.39 20 13.1497 20L7 20C5.34315 20 4 18.6569 4 17L4 7C4 5.34315 5.34315 4 7 4L17 4C18.6569 4 20 5.34315 20 7L20 13.1497ZM9.89473 13.2713L11.9998 9.02994L14.1048 13.2713L9.89473 13.2713ZM21.8043 20.8845L20.1674 19.2476C20.5024 18.7389 20.6973 18.1299 20.6973 17.4753C20.6973 15.693 19.2524 14.2481 17.4701 14.2481C15.6878 14.2481 14.243 15.693 14.243 17.4753C14.243 19.2576 15.6878 20.7024 17.4701 20.7024C18.1277 20.7024 18.7393 20.5058 19.2494 20.1681L20.8851 21.8037C21.139 22.0576 21.5505 22.0576 21.8044 21.8037C22.0582 21.5499 22.0582 21.1383 21.8043 20.8845ZM17.4701 19.4024C16.4058 19.4024 15.543 18.5396 15.543 17.4753C15.543 16.4109 16.4058 15.5481 17.4701 15.5481C18.5344 15.5481 19.3973 16.4109 19.3973 17.4753C19.3973 18.5396 18.5344 19.4024 17.4701 19.4024Z"/></svg>

<svg xmlns="http://www.w3.org/2000/svg" fill="none" viewBox="0 0 24 24" focusable="false"><path fill="#74767B" fill-rule="evenodd" d="M20 13.14c0 .25-.28.39-.49.28-.61-.31-1.31-.48-2.04-.48-.67 0-1.31.14-1.88.4l-3-6.04a.65.65 0 0 0-.6-.36.65.65 0 0 0-.59.36l-4.37 8.81c-.16.33-.03.72.29.88.32.15.71.02.87-.3l1.05-2.12h4.75c-.66.78-1.05 1.79-1.05 2.9 0 .73.17 1.43.48 2.04.11.21-.04.49-.28.49H7c-1.66 0-3-1.35-3-3V7c0-1.66 1.34-3 3-3h10c1.65 0 3 1.34 3 3zm-10.11.13 2.1-4.25 2.11 4.25zm10.27 5.97 1.64 1.64c.25.25.25.66 0 .92-.25.25-.67.25-.92 0l-1.64-1.64c-.51.34-1.12.54-1.77.54-1.79 0-3.23-1.45-3.23-3.23s1.44-3.23 3.23-3.23c1.78 0 3.22 1.45 3.22 3.23 0 .65-.19 1.26-.53 1.77m-4.62-1.77c0 1.06.86 1.93 1.93 1.93 1.06 0 1.92-.87 1.92-1.93s-.86-1.93-1.92-1.93c-1.07 0-1.93.87-1.93 1.93"/></svg>
